X: 25657
T: Martin Rochford's
R: reel
M: 4/4
K: Gmajor
|GEDE GABd|dBeB dBAB|GEDE G2 eB|dBAB GE E2|
GEDE GABd|dBeB dBAB|GEDE G2 eB|dBAc BE E2||
g3e f2 ed|Be e2 Be e2|gfeg fedB|AcBA GE E2|
g3e f2 ed|Beed e3f|gabg fgaf|dBAc BEED||

